icons/image-magnifying-glass-16.svg

<?xml version="1.0" encoding="UTF-8"?><svg id="icons" xmlns="http://www.w3.org/2000/svg" viewBox="0 0 16 16"><defs><style>.cls-1{fill:none;}</style></defs><path d="M3,6.70117c-.34576,0-.67761,.05194-1,.12933V1h14V12H7.15179c.08966-.34558,.14899-.67938,.14899-.99951,0-.00018-.00006-.00031-.00006-.00049h7.69928v-1.08691l-2.80859-2.70898-.68652,.45898c-.22461,.18115-.50781,.28125-.79492,.28125-.3125,0-.61328-.11523-.8457-.32275l-1.50098-1.3335-1.53418,1.63623c-.15118,.16095-.3457,.25958-.55194,.32526-.30365-.3609-.65894-.6709-1.06433-.91632l.08722-.09308c.11041-.1178,.28949-.1178,.39996,0s.28955,.1178,.40002,0l2.01733-2.15179c.10339-.11035,.26868-.11835,.38104-.01849l2.02979,1.8042c.10071,.0896,.24585,.09351,.35071,.00958l1.22485-.82336c.11261-.09009,.2702-.07812,.36969,.02808l2.52655,2.43597V2H3V6.70117Zm8.5-2.20117c.55231,0,1-.44769,1-1s-.44769-1-1-1-1,.44769-1,1,.44769,1,1,1ZM5.3703,12.66315l2.39746,2.39746c.09375,.09375,.14648,.22095,.14642,.35358,0,.13263-.05267,.25977-.14642,.35358-.19531,.19525-.51184,.19519-.70709-.00006l-2.39752-2.39746c-.47144,.33148-1.04309,.52972-1.66315,.52972C1.39838,13.89996,.09998,12.60156,.09998,11s1.2984-2.90002,2.90002-2.90002,2.90002,1.2984,2.90002,2.90002c0,.62006-.19824,1.19171-.52972,1.66315Zm-2.3703,.23682c1.04755,0,1.90002-.85242,1.90002-1.89996s-.85248-1.90002-1.90002-1.90002-1.90002,.85248-1.90002,1.90002,.85248,1.89996,1.90002,1.89996Z"/><rect class="cls-1" width="16" height="16"/></svg>

<svg xmlns="http://www.w3.org/2000/svg" viewBox="0 0 16 16"><path d="M3 6.701c-.346 0-.678.052-1 .13V1h14v11H7.152c.09-.346.149-.68.149-1H15V9.913l-2.809-2.709-.686.46a1.27 1.27 0 0 1-1.64-.042L8.362 6.288 6.83 7.924c-.151.161-.346.26-.552.326a4.301 4.301 0 0 0-1.064-.917L5.3 7.24c.11-.118.29-.118.4 0s.29.118.4 0l2.017-2.152a.27.27 0 0 1 .381-.018l2.03 1.804c.1.09.246.094.35.01l1.226-.824a.27.27 0 0 1 .37.028L15 8.524V2H3v4.701zM11.5 4.5a1 1 0 1 0 0-2 1 1 0 0 0 0 2zm-6.13 8.163l2.398 2.398a.5.5 0 1 1-.707.707L4.663 13.37A2.88 2.88 0 0 1 3 13.9 2.9 2.9 0 1 1 5.9 11a2.88 2.88 0 0 1-.53 1.663zM3 12.9c1.048 0 1.9-.852 1.9-1.9S4.048 9.1 3 9.1s-1.9.852-1.9 1.9.852 1.9 1.9 1.9z"/><path fill="none" d="M0 0h16v16H0z"/></svg>
